polaris-icons/icons/new-icons/ContentMinor.svg

<svg width="20" height="20" viewBox="0 0 20 20" fill="none" xmlns="http://www.w3.org/2000/svg">
<path d="M5 5.25C5 5.11193 5.11193 5 5.25 5H11.75C11.8881 5 12 5.11193 12 5.25C12 5.66421 12.3358 6 12.75 6C13.1642 6 13.5 5.66421 13.5 5.25C13.5 4.2835 12.7165 3.5 11.75 3.5H5.25C4.2835 3.5 3.5 4.2835 3.5 5.25V14.75C3.5 15.7165 4.2835 16.5 5.25 16.5H11.75C12.7165 16.5 13.5 15.7165 13.5 14.75V13.75C13.5 13.3358 13.1642 13 12.75 13C12.3358 13 12 13.3358 12 13.75V14.75C12 14.8881 11.8881 15 11.75 15H5.25C5.11193 15 5 14.8881 5 14.75V5.25Z" fill="#4A4A4A"/>
<path d="M16.4964 8.35355C16.6917 8.15829 16.6917 7.84171 16.4964 7.64645L15.4358 6.58579C15.2405 6.39052 14.9239 6.39052 14.7287 6.58579L13.7715 7.5429L15.5393 9.31067L16.4964 8.35355Z" fill="#4A4A4A"/>
<path d="M14.8322 10.0178L13.0644 8.25001L10.6155 10.699C10.2421 11.0724 10.0315 11.5782 10.0297 12.1063L10.0273 12.8041C10.0268 12.9428 10.1394 13.0554 10.2781 13.0549L10.976 13.0525C11.504 13.0507 12.0099 12.8401 12.3832 12.4667L14.8322 10.0178Z" fill="#4A4A4A"/>
<path d="M6 9.75C6 9.33579 6.33579 9 6.75 9H8.25C8.66421 9 9 9.33579 9 9.75C9 10.1642 8.66421 10.5 8.25 10.5H6.75C6.33579 10.5 6 10.1642 6 9.75Z" fill="#4A4A4A"/>
<path d="M6.75 12C6.33579 12 6 12.3358 6 12.75C6 13.1642 6.33579 13.5 6.75 13.5H8.25C8.66421 13.5 9 13.1642 9 12.75C9 12.3358 8.66421 12 8.25 12H6.75Z" fill="#4A4A4A"/>
</svg>

<svg viewBox="0 0 20 20" xmlns="http://www.w3.org/2000/svg"><path d="M5 5.25a.25.25 0 0 1 .25-.25h6.5a.25.25 0 0 1 .25.25.75.75 0 0 0 1.5 0 1.75 1.75 0 0 0-1.75-1.75h-6.5a1.75 1.75 0 0 0-1.75 1.75v9.5c0 .966.784 1.75 1.75 1.75h6.5a1.75 1.75 0 0 0 1.75-1.75v-1a.75.75 0 0 0-1.5 0v1a.25.25 0 0 1-.25.25h-6.5a.25.25 0 0 1-.25-.25v-9.5Z" fill="#5C5F62"/><path d="M16.496 8.354a.5.5 0 0 0 0-.708l-1.06-1.06a.5.5 0 0 0-.707 0l-.957.957 1.767 1.768.957-.957Z" fill="#5C5F62"/><path d="m14.832 10.018-1.768-1.768-2.448 2.449a2 2 0 0 0-.586 1.407l-.003.698a.25.25 0 0 0 .251.25l.698-.002a2 2 0 0 0 1.407-.585l2.45-2.45Z" fill="#5C5F62"/><path d="M6 9.75a.75.75 0 0 1 .75-.75h1.5a.75.75 0 0 1 0 1.5h-1.5a.75.75 0 0 1-.75-.75Z" fill="#5C5F62"/><path d="M6.75 12a.75.75 0 0 0 0 1.5h1.5a.75.75 0 0 0 0-1.5h-1.5Z" fill="#5C5F62"/></svg>
